X: 31391
T: Paddy On The Binge
R: barndance
M: 4/4
K: Dmajor
|:FADE FAAF|FADE FDAD|FADE FAAF|1 EF D2 D4:|2 E/F/E D2 D2||
(3ABc|d3 B ABdB|A/A/A FD EDBc|d2 d/d/B ABde|f2 e2 e2 de|
fedf edBc|dedB AF D2|FADE FDAF|EF D2 D4||

